!!! OTL: Berkowitz178
!!! Chapter: 1
!!! Section: I
!!! Page: 40
!!! Mode: 
!!! Encoder: DJB
**kern
*staff1
*I"Piano
=1-
*clefG2
*k[f#]
*e:
*M3/4
4.b\
8a/
8g/L
8f#/J
=2
4g/
4e/
4d/
=3
4c/
4e/
4g/
=4
4cc\
2r
=5
4cc\
4b\
4a/
=6
4g/
4f#/
4e/
=7
4b\
4.f#/
8a/
=8
4g/
4r
4e/
=9
4cc\
4g/
4e/
=10
4f#/
4g/
4a/
=11
!!linebreak:original
4b\
4.f#/
8a/
=12
4g/
4r
4e/
=13
4.f#/
8g/
4a/
=14
4b\
4g/
4e/
=15
4a/
4f#/
4d#/
=16
4e/
2r
==
*-
